X:1
T:Title
%%score 1 { 2 | 3 }
L:1/8
Q:1/4=95
M:3/4
K:C
V:1 treble nm="Grand Piano, Soprano"
V:2 bass nm="Choir Pad, Los Feliz"
V:3 bass 
V:1
 [CE][DF] [EG]3 [Ec] | [FB][FA] [EG]2 [CE]2 | [EG]G [FA]3 [CG] | [B,F][CE] [B,D]4 | %4
w: By~John~Millard~Harris,~1908 * * *||||
 [CE][DF] [EG]3 [Ec] | [FB][FA] [EG]2 [CE]2 | [Ec][Ec] [DB]3 [CA] | [CE][C^F] [B,G]4 | %8
w: ||||
 [DG][DG] [FB]3 [FB] | [FA][FB] [Ec]2 [EG]2 | [DG][DG] [FA]3 [GB] | [Gc][Gd] [Ge]4 | %12
w: ||||
 [Ge][Ge] [^Ge]3 [Ge] | [^Ge][Ed] [Ed]2 [Ec]2 | [_EB][EA] [=EG][EG] [Ec]2 | [Fd]2 [Ec]4 | %16
w: ||||
 [DB][Ec] [Fd]3 [Fd] | [Ec][Fd] [Ge]2 [Ec]2 | [FB][Gc] [Gd]3 [Gd] | [Gc][Gd] [Ge]4 | %20
w: ||||
 [Ge][Ge] [^Ge]3 [Ge] | [^Ge][Ed] [Ed]2 [Ec]2 | [_EB][EA] [GB][GB] [=Ec]2 | [Fd]2 [Ec]4- | %24
w: ||||
 [Ec]4 z2 |] %25
w: |
V:2
 G,G, C3 G, | A,B,[K:treble] C2 G,2 | CC C3 C | G,G, G,4 | G,G, C3 G, | A,B, C2 G,2 | %6
 G,G, G,3 ^F, | G,A, G,4 | B,B, D3 D | B,G, G,2[K:treble] C2 | CC C3 D | CB, C4 | %12
 CC[K:bass] B,3 B, | B,B, B,2 A,2 | CC CC C2 | B,2 C4 | G,C B,3 B, | CB, C2 G,2 | G,C B,3 B, | %19
 CB, C4 | CC[K:bass] B,3 B, | B,B, B,2 A,2 | CC CC C2 | B,2 C4- | C4 z2 |] %25
V:3
 C,C, C,3 C, | C,C, C,2 C,2 | C,E, F,3 F, | D,C, G,,4 | C,C, C,3 C, | C,C, C,2 C,2 | C,C, D,3 D, | %7
 D,D, G,,4 | G,,G,, G,3 G, | .G,2 C,2 C,2 | C,C, F,3 F, | E,G, z2 z2 | C,C, E,3 E, | E,^G, G,2 z2 | %14
 ^F,F, G,G, G,2 | G,,2 C,4 | z G, G,3 G, | A,G, C,2 C,2 | D,E, G,3 F, | E,G, z2 z2 | C,C, E,3 E, | %21
 E,^G, G,2 z2 | ^F,F, G,G, G,2 | G,,2 C,4- | C,4 z2 |] %25

